language-go.svg

<svg fill="currentColor" viewBox="0 0 24 24"><path d="m2.64 10.33-.02-.06.22-.27.12-.08H6.8l.03.08-.18.26-.11.06zm-1.61.98L1 11.26l.22-.29.12-.06h4.9l.05.09-.08.24-.1.07zm2.6.99-.04-.06.16-.28.1-.06H6l.07.07-.02.25-.08.08zm11.15-2.16-1.78.47c-.19.04-.2.05-.34-.11-.16-.18-.27-.29-.5-.4-.66-.34-1.33-.24-1.94.15-.72.48-1.11 1.17-1.1 2.05.01.86.6 1.57 1.45 1.7.73.09 1.34-.17 1.83-.72l.29-.39h-2.07c-.22 0-.27-.14-.2-.32l.55-1.18c.03-.06.11-.17.27-.17h3.44c.15-.5.41-.96.75-1.41.78-1.03 1.73-1.57 3-1.81 1.07-.18 2.13-.07 3.07.57.84.58 1.37 1.36 1.5 2.39.19 1.45-.24 2.63-1.24 3.65-.71.72-1.58 1.17-2.57 1.39l-.86.08c-.98-.02-1.87-.3-2.62-.95-.52-.45-.88-.99-1.06-1.63-.15.24-.27.47-.44.7-.77 1.02-1.78 1.65-3.06 1.8-1.05.16-2.03-.05-2.89-.69-.79-.6-1.26-1.4-1.36-2.39-.14-1.17.2-2.22.91-3.14.76-1 1.77-1.63 3.01-1.86 1-.18 1.97-.06 2.84.52.57.38.97.9 1.24 1.52q.06.135-.12.18m6.11 1.6-.03-.36c-.19-1.06-1.17-1.66-2.19-1.43-1.01.22-1.67.85-1.88 1.86-.19.84.21 1.69.98 2.03.59.26 1.19.22 1.76-.06.84-.43 1.31-1.12 1.36-2.04"/></svg>

<svg  viewBox="0 0 24 24" fill="currentColor"><path  d="M2.64,10.33L2.62,10.27L2.84,10L2.96,9.92H6.8L6.83,10L6.65,10.26L6.54,10.32L2.64,10.33M1.03,11.31L1,11.26L1.22,10.97L1.34,10.91H6.24L6.29,11L6.21,11.24L6.11,11.31H1.03M3.63,12.3L3.59,12.24L3.75,11.96L3.85,11.9H6L6.07,11.97L6.05,12.22L5.97,12.3H3.63M14.78,10.14L13,10.61C12.81,10.65 12.8,10.66 12.66,10.5C12.5,10.32 12.39,10.21 12.16,10.1C11.5,9.76 10.83,9.86 10.22,10.25C9.5,10.73 9.11,11.42 9.12,12.3C9.13,13.16 9.72,13.87 10.57,14C11.3,14.09 11.91,13.83 12.4,13.28L12.69,12.89H10.62C10.4,12.89 10.35,12.75 10.42,12.57L10.97,11.39C11,11.33 11.08,11.22 11.24,11.22H14.68C14.83,10.72 15.09,10.26 15.43,9.81C16.21,8.78 17.16,8.24 18.43,8C19.5,7.82 20.56,7.93 21.5,8.57C22.34,9.15 22.87,9.93 23,10.96C23.19,12.41 22.76,13.59 21.76,14.61C21.05,15.33 20.18,15.78 19.19,16L18.33,16.08C17.35,16.06 16.46,15.78 15.71,15.13C15.19,14.68 14.83,14.14 14.65,13.5C14.5,13.74 14.38,13.97 14.21,14.2C13.44,15.22 12.43,15.85 11.15,16C10.1,16.16 9.12,15.95 8.26,15.31C7.47,14.71 7,13.91 6.9,12.92C6.76,11.75 7.1,10.7 7.81,9.78C8.57,8.78 9.58,8.15 10.82,7.92C11.82,7.74 12.79,7.86 13.66,8.44C14.23,8.82 14.63,9.34 14.9,9.96C14.94,10.05 14.9,10.11 14.78,10.14M20.89,11.74L20.86,11.38C20.67,10.32 19.69,9.72 18.67,9.95C17.66,10.17 17,10.8 16.79,11.81C16.6,12.65 17,13.5 17.77,13.84C18.36,14.1 18.96,14.06 19.53,13.78C20.37,13.35 20.84,12.66 20.89,11.74Z"/></svg>
